X:407
T:Fergal O'Gara's
T:Farrell O'Gara
R:reel
M:C|
K:D
A,D~D2 A,DFA|BFAF EFAc|dBcA (3BcdAF|GEFD EDB,D|
A,D~D2 A,DFA|BFAF EFAc|~d2cA BdAF|1 GFEG FDDB,:|2 GFEG FDDe||
fd~d2 fdge|fdgf edBc|dBBA Bcde|fdgf e2de|
fd~d2 fdge|fdgf edBc|dBBA BdAF|GFEG FDDe|
fd~d2 fdge|fdgf edBc|dBBA Bcde|fdgf ~e3g|
fgaf edBA|defd BAFD|A,D~D2 A,DFA|BFAF D3B,||
